assets/media/icons/brands/samsung.svg

<?xml version="1.0" standalone="no"?>
<!DOCTYPE svg PUBLIC "-//W3C//DTD SVG 1.0//EN" "http://www.w3.org/TR/2001/REC-SVG-20010904/DTD/svg10.dtd">
<svg xmlns="http://www.w3.org/2000/svg" xmlns:xlink="http://www.w3.org/1999/xlink" id="body_1" width="1800" height="1200">

<g transform="matrix(2.3077188 0 0 2.3077188 205.38695 491.55072)">
	<g transform="matrix(2.0134 0 0 2.0134 -2.0134 -1.8523)">
	</g>
    <path transform="matrix(2.0134 0 0 2.0134 -2.0134 -1.8523)"  d="M20.78 32.93C 21.19 33.96 21.060001 35.28 20.86 36.08C 20.51 37.5 19.550001 38.95 16.710001 38.95C 14.050001 38.95 12.43 37.41 12.43 35.09L12.43 35.09L12.43 30.96L1 30.96L1 34.239998C 1 43.739998 8.469999 46.609997 16.48 46.609997C 24.18 46.609997 30.52 43.989998 31.529999 36.879997C 32.05 33.199997 31.669998 30.789997 31.489998 29.899998C 29.689999 20.979998 13.529999 18.319998 12.319998 13.329998C 12.619998 11.959998 13.549997 10.469998 16.209997 10.469998C 18.709997 10.469998 20.159998 12.009998 20.159998 14.329998L20.159998 14.329998L20.159998 16.969997L30.789997 16.969997L30.789997 13.969997C 30.75 2.45 22.42 1 16.4 1C 8.82 1 2.63 3.51 1.5 10.46C 1.2 12.36 1.15 14.059999 1.6 16.2C 3.45 24.900002 18.58 27.420002 20.78 32.93" stroke="none" fill="#034EA2" fill-rule="nonzero" />
	<g transform="matrix(2.0134 0 0 2.0134 -2.0134 -1.8523)">
	</g>
    <path transform="matrix(2.0134 0 0 2.0134 -2.0134 -1.8523)"  d="M46.6 2.36L38.699997 44.95L50.21 44.95L56.04 6.3L56.280003 6.3L61.950005 44.95L73.4 44.95L65.55 2.3500023L46.6 2.36zM110.95 2.36L105.7 34.920002L105.45 34.920002L100.21 2.3600006L82.84 2.3600006L81.899994 44.95L92.56 44.95L92.82 6.66L93.06 6.66L100.17 44.95L110.979996 44.95L118.1 6.670002L118.33 6.670002L118.6 44.95L129.25 44.95L128.31 2.3500023z" stroke="none" fill="#034EA2" fill-rule="nonzero" />
	<g transform="matrix(2.0134 0 0 2.0134 -2.0134 -1.8523)">
	</g>
    <path transform="matrix(2.0134 0 0 2.0134 -2.0134 -1.8523)"  d="M20.78 32.93C 21.19 33.96 21.060001 35.28 20.86 36.08C 20.51 37.5 19.550001 38.95 16.710001 38.95C 14.050001 38.95 12.43 37.41 12.43 35.09L12.43 35.09L12.43 30.96L1 30.96L1 34.239998C 1 43.739998 8.469999 46.609997 16.48 46.609997C 24.18 46.609997 30.52 43.989998 31.529999 36.879997C 32.05 33.199997 31.669998 30.789997 31.489998 29.899998C 29.689999 20.979998 13.529999 18.319998 12.319998 13.329998C 12.619998 11.959998 13.549997 10.469998 16.209997 10.469998C 18.709997 10.469998 20.159998 12.009998 20.159998 14.329998L20.159998 14.329998L20.159998 16.969997L30.789997 16.969997L30.789997 13.969997C 30.75 2.45 22.42 1 16.4 1C 8.82 1 2.63 3.51 1.5 10.46C 1.2 12.36 1.15 14.059999 1.6 16.2C 3.45 24.900002 18.58 27.420002 20.78 32.93" stroke="none" fill="#034EA2" fill-rule="nonzero" />
	<g transform="matrix(2.0134 0 0 2.0134 -2.0134 -1.8523)">
	</g>
    <path transform="matrix(2.0134 0 0 2.0134 -2.0134 -1.8523)"  d="M195 38.57C 197.96 38.57 198.87 36.53 199.08 35.489998C 199.17 35.03 199.18001 34.409996 199.18001 33.859997L199.18001 33.859997L199.18001 2.36L209.96 2.36L209.96 32.89L199.18001 33.859997L199.18001 2.36L209.96 2.36L209.96 32.89C 209.21 40.84 202.93001 43.42 195.1 43.42C 187.26001 43.42 180.98001 40.839996 180.23001 32.89C 180.20001 32.47 180.12001 30.869999 180.13 30.09L180.13 30.09L180.13 2.35L190.91 2.35L190.91 33.85C 190.90001 34.41 190.92 35.03 191.01001 35.489998C 191.21 36.53 192.13 38.57 195.1 38.57M247.18001 2.3600006L247.76001 35.79L247.53001 35.79L237.73001 2.3600006L221.93001 2.3600006L221.93001 44.5L232.40001 44.5L231.82 9.91L232.05 9.91L242.56 44.5L257.73 44.5L257.73 2.36L195 38.57zM283.93 38.13C 287.00998 38.13 288.09 36.18 288.28 35.030003C 288.37 34.56 288.38 33.960003 288.38 33.430004L288.38 33.430004L288.38 27.230003L284.01 27.230003L284.01 21.030003L299 21.030003L299 32.450005C 299 33.250004 298.98 33.830006 298.85 35.250004C 298.15 43.010002 291.42 45.780003 283.87 45.780003C 276.32 45.780003 269.6 43.010002 268.88998 35.250004C 268.77 33.830006 268.74 33.250004 268.74 32.450005L268.74 32.450005L268.74 14.53C 268.74 13.7699995 268.84 12.43 268.91998 11.73C 269.87 3.7599998 276.31998 1.1999998 283.87 1.1999998C 291.41998 1.1999998 298.04 3.7399998 298.82 11.72C 298.96002 13.08 298.92 14.52 298.92 14.52L298.92 14.52L298.92 15.950001L288.18002 15.950001L288.18002 13.56C 288.18002 13.56 288.18002 12.56 288.05002 11.940001C 287.85 11.000001 287.05002 8.84 283.79 8.84C 280.69 8.84 279.78 10.89 279.55002 11.940001C 279.42 12.500001 279.37003 13.26 279.37003 13.950001L279.37003 13.950001L279.37003 33.42C 279.37003 33.96 279.39 34.559998 279.47003 35.039997C 279.67004 36.179996 280.75003 38.129997 283.83002 38.129997" stroke="none" fill="#034EA2" fill-rule="nonzero" />
</g>
</svg>

<svg xmlns="http://www.w3.org/2000/svg" xmlns:xlink="http://www.w3.org/1999/xlink" height="800" width="1200" viewBox="-89.99898 -22.99805 779.99116 137.9883"><g transform="translate(-2.0134 -1.8523) scale(2.0134)" fill="#034ea2"><path d="M20.78 32.93c.41 1.03.28 2.35.08 3.15-.35 1.42-1.31 2.87-4.15 2.87-2.66 0-4.28-1.54-4.28-3.86v-4.13H1v3.28c0 9.5 7.47 12.37 15.48 12.37 7.7 0 14.04-2.62 15.05-9.73.52-3.68.14-6.09-.04-6.98-1.8-8.92-17.96-11.58-19.17-16.57a5.46 5.46 0 01-.04-2.24c.3-1.37 1.23-2.86 3.89-2.86 2.5 0 3.95 1.54 3.95 3.86v2.64h10.63v-3C30.75 2.45 22.42 1 16.4 1 8.82 1 2.63 3.51 1.5 10.46c-.3 1.9-.35 3.6.1 5.74 1.85 8.7 16.98 11.22 19.18 16.73" id="a"/><path d="M46.6 2.36l-7.9 42.59h11.51L56.04 6.3h.24l5.67 38.65H73.4l-7.85-42.6zm64.35 0l-5.25 32.56h-.25l-5.24-32.56H82.84l-.94 42.59h10.66l.26-38.29h.24l7.11 38.29h10.81l7.12-38.28h.23l.27 38.28h10.65l-.94-42.6z"/><use height="100%" width="100%" xlink:href="#a" transform="translate(138.47 -.08)"/><path d="M195 38.57c2.96 0 3.87-2.04 4.08-3.08.09-.46.1-1.08.1-1.63V2.36h10.78v30.53a37 37 0 01-.1 2.8c-.75 7.95-7.03 10.53-14.86 10.53-7.84 0-14.12-2.58-14.87-10.53-.03-.42-.11-2.02-.1-2.8V2.35h10.78v31.5c-.01.56.01 1.18.1 1.64.2 1.04 1.12 3.08 4.09 3.08m52.08-36.21l.58 33.43h-.23l-9.8-33.43h-15.8V44.5h10.47l-.58-34.59h.23l10.51 34.59h15.17V2.36zm36.75 35.77c3.08 0 4.16-1.95 4.35-3.1.09-.47.1-1.07.1-1.6v-6.2h-4.37v-6.2H299v11.42c0 .8-.02 1.38-.15 2.8-.7 7.76-7.43 10.53-14.98 10.53-7.55 0-14.27-2.77-14.98-10.53-.12-1.42-.15-2-.15-2.8V14.53c0-.76.1-2.1.18-2.8.95-7.97 7.4-10.53 14.95-10.53 7.55 0 14.17 2.54 14.95 10.52.14 1.36.1 2.8.1 2.8v1.43h-10.74v-2.39s0-1-.13-1.62c-.2-.94-1-3.1-4.26-3.1-3.1 0-4.01 2.05-4.24 3.1-.13.56-.18 1.32-.18 2.01v19.47c0 .54.02 1.14.1 1.62.2 1.14 1.28 3.09 4.36 3.09"/></g></svg>
